img/icons/home.svg

<svg width="75" height="72" viewBox="0 0 75 72" fill="none" xmlns="http://www.w3.org/2000/svg">
<path d="M29.6185 65H45.6827V41.2H29.6185V65ZM32.5301 44.1H42.6707V62.1H32.5301V44.1Z" fill="#83B3D3"/>
<path d="M72.8916 39.3L75 37.2L65.0602 27.3V0H51.1044V13.6L37.4498 0L0 37.2L2.10843 39.3L9.93976 31.5V69.1H5.92369V72H70.0803V69.1H64.9598V31.5L72.8916 39.3ZM62.0482 69.1H12.8514V28.5L37.4498 4.1L62.0482 28.5V69.1ZM62.0482 24.4L54.1165 16.5V2.9H62.0482V24.4Z" fill="#83B3D3"/>
<path d="M29.8193 27.1C29.8193 31.4 33.3333 34.8 37.5502 34.8C41.8675 34.8 45.3815 31.3 45.3815 27.1C45.3815 22.8 41.8675 19.4 37.5502 19.4C33.3333 19.4 29.8193 22.8 29.8193 27.1ZM37.6506 22.1C40.3614 22.1 42.6707 24.3 42.6707 27C42.6707 29.7 40.4618 31.9 37.6506 31.9C34.9398 31.9 32.6305 29.7 32.6305 27C32.6305 24.3 34.8394 22.1 37.6506 22.1Z" fill="#83B3D3"/>
<path d="M19.9799 41.2H16.9679V45.1H19.9799V41.2Z" fill="#83B3D3"/>
<path d="M25.9036 41.2H22.8916V45.1H25.9036V41.2Z" fill="#83B3D3"/>
<path d="M19.9799 47.2H16.9679V51.1H19.9799V47.2Z" fill="#83B3D3"/>
<path d="M25.9036 47.2H22.8916V51.1H25.9036V47.2Z" fill="#83B3D3"/>
<path d="M52.008 41.2H48.996V45.1H52.008V41.2Z" fill="#83B3D3"/>
<path d="M57.9317 41.2H54.9197V45.1H57.9317V41.2Z" fill="#83B3D3"/>
<path d="M52.008 47.2H48.996V51.1H52.008V47.2Z" fill="#83B3D3"/>
<path d="M57.9317 47.2H54.9197V51.1H57.9317V47.2Z" fill="#83B3D3"/>
</svg>

<svg xmlns="http://www.w3.org/2000/svg" width="75" height="72" fill="none"><path fill="#83B3D3" d="M29.62 65h16.06V41.2H29.62V65Zm2.91-20.9h10.14v18H32.53v-18Z"/><path fill="#83B3D3" d="m72.9 39.3 2.1-2.1-9.94-9.9V0H51.1v13.6L37.45 0 0 37.2l2.1 2.1 7.84-7.8v37.6H5.92V72h64.16v-2.9h-5.12V31.5l7.93 7.8ZM62.04 69.1h-49.2V28.5l24.6-24.4 24.6 24.4v40.6Zm0-44.7-7.93-7.9V2.9h7.93v21.5Z"/><path fill="#83B3D3" d="M29.82 27.1c0 4.3 3.51 7.7 7.73 7.7a7.8 7.8 0 0 0 7.83-7.7c0-4.3-3.51-7.7-7.83-7.7a7.72 7.72 0 0 0-7.73 7.7Zm7.83-5a5 5 0 0 1 5.02 4.9c0 2.7-2.2 4.9-5.02 4.9a5 5 0 0 1-5.02-4.9c0-2.7 2.2-4.9 5.02-4.9ZM19.98 41.2h-3.01v3.9h3.01v-3.9ZM25.9 41.2h-3v3.9h3v-3.9ZM19.98 47.2h-3.01v3.9h3.01v-3.9ZM25.9 47.2h-3v3.9h3v-3.9ZM52 41.2h-3v3.9h3v-3.9ZM57.93 41.2h-3.01v3.9h3.01v-3.9ZM52 47.2h-3v3.9h3v-3.9ZM57.93 47.2h-3.01v3.9h3.01v-3.9Z"/></svg>
